X:1
T:Fair Hobe JBut.037
T:Fair Hobe JBut.037
T:Fair Hebe JBut.037
T:A Favorite Retreat
C:A Favorite Retreat
L:1/8
Q:3/4=40
M:3/4
K:G
V:1 treble 
V:1
|: D2 | G2 G2 (3GBd | d2 c2 B2 | AB/c/ B2 A2 | G4 DG | GF F2 DB | B2 ^c2 d2 |{c} BA/G/ F2 TE2 | %8
 D4 :: d2 |{e} dc/B/ c2 Dc |"^NB" d2 c2 Ge | e2 (dc) (Bd) |"^sic" B2 A4 D4 | G>B A>c B>d | %15
 d2 c2 Bg |{f} fd/c/ B2 TA2 | G4 :| %18

